img/svg/16/net/firewebnavigator.svg

<svg xmlns="http://www.w3.org/2000/svg" viewBox="0 0 16 16" enable-background="new 0 0 16 16"><path d="M10.594 4.362c-3.4-2.211-1.864-4.362-1.864-4.362-3.303 1.865-4.034 4.71-3.225 8.307-1.192-.946-1.363-2.066-1.326-3.533-1.515 1.589-1.787 3.283-1.687 5.094.158 2.872 2.649 5.157 5.597 5.132 2.866-.024 5.289-2.357 5.428-5.192.117-2.388-.911-4.138-2.923-5.446zm-.594 3.638h-2v1h1.993v1h-1.993v2h-.994v-5h2.994v1z" fill-rule="evenodd" clip-rule="evenodd" fill="#ccc"/></svg>

<svg xmlns="http://www.w3.org/2000/svg" viewBox="0 0 16 16"><path fill="#ccc" fill-rule="evenodd" d="M10.594 4.362C7.194 2.151 8.73 0 8.73 0 5.427 1.865 4.696 4.71 5.505 8.307c-1.192-.946-1.363-2.066-1.326-3.533-1.515 1.589-1.787 3.283-1.687 5.094C2.65 12.74 5.141 15.025 8.089 15c2.866-.024 5.289-2.357 5.428-5.192.117-2.388-.911-4.138-2.923-5.446zM10 8H8v1h1.993v1H8v2h-.994V7H10v1z" clip-rule="evenodd"/></svg>
